!!!OTL: 59. Die Feldjäger (Scharfschuetzen).
!!!ARE: Europa, Mitteleuropa, Deutschland, Preussen
!!!SCT: B0059
!!!TXL: @@DE
!!!YEM: Copyright 1995, estate of Helmut Schaffrath.
**kern	**text
*ICvox	*
*Ivox	*
*M6/8	*
*clefG2	*
*k[]	*
*C:	*
!LO:TX:a:t=Lebhaft und kräftig.	!
{8g	Mit
=1	=1
4g	Hör-
8e	-ner-
4e	-ſchall
8cc	und
=2	=2
4cc	Luſt-
8g	-ge-
4g}	-ſang,
{8ee	als
=3	=3
4dd	ging
8dd	es
!LO:TX:a:t=Preußiſche Soldatenmelodie.	!
8ddL	froh
8eeJ	.
8dd	ʒur
=4	=4
4.cc	Jagd,
4r}	.
{8ee	ſo
=5	=5
4dd	ʒiehn
8cc	wir
4b/	Jä-
8a	-ger
=6	=6
4b	wohl-
8cc	-ge-
4dd}	-muth,
{8ee	wenn's
=7	=7
4dd	Noth
8cc	dem
4b/	Va-
8a	-ter-
=8	=8
4b	-lan-
8cc	-de
4dd}	thut,
{8g	hi-
=9	=9
4cc	-naus
8cc	ins
8ddL	Feld
8ccJ	.
8dd	der
=10	=10
4.ee	Schlacht,
4r}	.
{8ee	hi-
=11	=11
4ff	-naus
8dd	ins
4cc	Feld
8b	der
=12	=12
4.cc	Schlacht.
4r}	.
==	==
!!!AGN: Kriegs -, Sieges -, Soldaten - Lied
!!!GTL: Kriegs- und Siegeslieder
!!!ONB: ESAC (Essen Associative Code) Database: BOEHME
!!!AMT: compound duple
!!!AIN: vox
!!!EED: Helmut Schaffrath
!!!EEV: 1.0
!!@@COMMENT:"Gedicht von Gottfr. Aug. Bürger, 1794. [...] Es giebt daʒu eine Melodie von W. Berner, 1821, nach la chasse de Dussek.
!!eine ächte Waldhorn-Weiſe aus Naturtönen aufgebaut. - Jch gebe die mehr verbreitete aus dem
!!Pr. Soldaten-Liederbuche, 1881."
!!@@END:
!!Text: Gottfr. Aug. Bürger
!!!URL-scan: https://archive.org/details/BoehmeVtLieder1895/page/n73/mode/2up
!!!ENC: Anna Maria Matuszewska
!!!EEV: 2024/14/0
*-	*-
